a/assets/inline-svg/app-colored-icons/color-purchase-order.svg

<svg width="11" height="12" viewBox="0 0 11 12" fill="none" xmlns="http://www.w3.org/2000/svg">
<path fill-rule="evenodd" clip-rule="evenodd" d="M1.50001 3.00407H3.00353V1.50055L1.50001 3.00407ZM8.50904 0.880047V4.33864H9.39501V0.439855C9.39501 0.19779 9.19848 0.000462921 8.95562 0.000462921H3.44324C3.37054 -0.00273266 3.30663 0.0108486 3.24431 0.0340165C3.21795 0.0515922 3.17641 0.0843469 3.13886 0.123493L0.132617 3.12894C0.091873 3.17048 0.0607161 3.21841 0.0399448 3.27114C0.0135812 3.33026 0.000798895 3.38778 0 3.4453V11.5605C0 11.8033 0.197327 11.9999 0.439393 11.9999H6.12753C6.36959 11.9999 6.56612 11.8033 6.56612 11.5605C6.56612 11.3192 6.36959 11.1219 6.12753 11.1219H0.879584V3.88389H3.44324C3.6853 3.88389 3.88263 3.68577 3.88263 3.4437V0.880047H8.50904ZM4.55668 6.17517H2.55944C2.31737 6.17517 2.12005 5.97785 2.12005 5.73578C2.12005 5.49372 2.31737 5.29639 2.55944 5.29639H4.55668C4.79874 5.29639 4.99607 5.49372 4.99607 5.73578C4.99607 5.97785 4.79874 6.17517 4.55668 6.17517ZM2.55944 8.17217H5.35557C5.59764 8.17217 5.79497 7.97565 5.79497 7.73358C5.79497 7.49072 5.59764 7.29339 5.35557 7.29339H2.55944C2.31737 7.29339 2.12005 7.49072 2.12005 7.73358C2.12005 7.97565 2.31737 8.17217 2.55944 8.17217ZM4.55668 10.1686H2.55944C2.31737 10.1686 2.12005 9.97211 2.12005 9.73005C2.12005 9.48718 2.31737 9.28986 2.55944 9.28986H4.55668C4.79874 9.28986 4.99607 9.48718 4.99607 9.73005C4.99607 9.97211 4.79874 10.1686 4.55668 10.1686ZM8.53033 5.75622V5.53336C8.53033 5.2586 8.75269 5.03591 9.02778 5.03591C9.3027 5.03591 9.52523 5.2586 9.52523 5.53336V5.75622C10.1205 5.89069 10.6516 6.26842 10.8259 6.89106C10.9244 7.14841 10.7639 7.47407 10.4994 7.54902C10.2349 7.62414 9.92252 7.43162 9.87245 7.16051C9.79401 6.88062 9.49919 6.69407 9.02778 6.69407C8.7565 6.69407 8.54575 6.77632 8.41111 6.89106C8.27663 7.00564 8.20384 7.14228 8.20384 7.35734C8.20565 7.67202 8.63233 7.83309 9.01078 7.97594C9.08321 8.00328 9.15388 8.02996 9.21946 8.05692C9.30287 8.09162 9.39135 8.12383 9.48314 8.15726C9.71196 8.24057 9.96135 8.33138 10.2041 8.48688C10.5442 8.70493 10.8466 9.14732 10.8466 9.67877C10.8466 10.1669 10.6322 10.6118 10.2921 10.9017C10.0744 11.0874 9.80927 11.2129 9.52523 11.2801V11.5027C9.52523 11.7775 9.3027 12.0002 9.02778 12.0002C8.75269 12.0002 8.53033 11.7775 8.53033 11.5027V11.2801C7.93505 11.1454 7.40908 10.7677 7.23481 10.145C7.13615 9.88786 7.29699 9.56203 7.5613 9.48708C7.82561 9.41213 8.13303 9.60465 8.18311 9.87559C8.26137 10.1555 8.55636 10.342 9.02778 10.342C9.29905 10.342 9.5098 10.2546 9.64445 10.1399C9.77892 10.0253 9.85172 9.89383 9.85172 9.67877C9.84976 9.35864 9.4227 9.19751 9.04292 9.05423C8.97123 9.02718 8.90123 9.00077 8.83609 8.97405C8.75399 8.93991 8.66742 8.90817 8.57781 8.87533C8.34926 8.79156 8.10097 8.70055 7.85678 8.54392C7.51653 8.32587 7.21408 7.88878 7.21408 7.35734C7.21408 6.86934 7.42848 6.42446 7.76857 6.13444C7.98629 5.9489 8.24629 5.82321 8.53033 5.75622Z" fill="#2C5CC5"/>
</svg>

<svg xmlns="http://www.w3.org/2000/svg" width="11" height="12" fill="none"><g clip-path="url(#color-purchase-order __a)"><path fill="#2C5CC5" fill-rule="evenodd" d="M1.5 3.004h1.504V1.501L1.5 3.004zM8.509.88v3.459h.886v-3.9A.44.44 0 008.955 0H3.444a.494.494 0 00-.199.034.684.684 0 00-.105.09L.133 3.128a.425.425 0 00-.093.142.438.438 0 00-.04.174v8.116a.44.44 0 00.44.439h5.688a.439.439 0 000-.878H.88V3.884h2.563a.44.44 0 00.44-.44V.88h4.626zM4.557 6.175H2.559a.44.44 0 010-.879h1.998a.44.44 0 010 .88zM2.559 8.172h2.797a.44.44 0 000-.879H2.559a.44.44 0 000 .88zm1.998 1.997H2.559a.44.44 0 010-.88h1.998a.44.44 0 010 .88zM8.53 5.756v-.223a.497.497 0 11.995 0v.223c.595.135 1.127.512 1.3 1.135a.519.519 0 01-.326.658.522.522 0 01-.627-.388c-.078-.28-.373-.467-.844-.467-.271 0-.482.082-.617.197a.56.56 0 00-.207.466c.002.315.428.476.807.619l.208.08c.084.036.172.068.264.101.229.084.478.174.721.33.34.218.643.66.643 1.192 0 .488-.215.933-.555 1.223a1.823 1.823 0 01-.767.378v.223a.497.497 0 11-.995 0v-.223c-.595-.135-1.12-.512-1.295-1.135a.519.519 0 01.326-.658.517.517 0 01.622.389c.078.28.373.466.845.466a.944.944 0 00.616-.202.55.55 0 00.208-.461c-.002-.32-.43-.481-.81-.625-.07-.027-.14-.053-.206-.08a6.54 6.54 0 00-.258-.099 3.523 3.523 0 01-.721-.331 1.433 1.433 0 01-.643-1.187c0-.488.214-.933.555-1.223.217-.185.477-.31.761-.378z" clip-rule="evenodd"/></g><defs><clipPath id="color-purchase-order __a"><path fill="#fff" d="M0 0h11v12H0z"/></clipPath></defs></svg>
